X: 23793
T: Little Jack's
R: jig
M: 6/8
K: Gmajor
|GFG AGF|GBd def|g2 e d2 G|FAG FED|
GFG AGF|GBd def|gfg dba|g2g2:|
dBd gbg|ece a2 g|faf def|gfg bgd|
dBd gbg|ece a2 g|faf def|g2g2:|

